z_dist/img/bg/bp390/dark-about-header-wave.svg

<svg width="390" height="1064" fill="none" xmlns="http://www.w3.org/2000/svg"><path fill-rule="evenodd" clip-rule="evenodd" d="M390 0H0v1039.83l16.25-5.62c16.25-5.63 48.75-16.88 81.25-20.63 21.667-2.5 43.333-1.66 65-.83 10.833.42 21.667.83 32.5.83 9.982 0 19.964-.84 29.947-1.69 22.517-1.9 45.035-3.81 67.553 3.99 7.675 1.31 11.397 2.7 15.57 4.25 4.073 1.52 8.577 3.19 17.607 5.12 18.281 3.91 37.781 15.49 48.073 25.63C384.042 1061.01 390 1064 390 1064V0z" fill="#0D090A"/></svg>

<svg width="390" height="1064" viewBox="0 0 390 1064" fill="none" xmlns="http://www.w3.org/2000/svg">
<path fill-rule="evenodd" clip-rule="evenodd" d="M390 0H0V984L2.86102e-05 1039.83L16.25 1034.21C32.5 1028.58 65 1017.33 97.5 1013.58C119.167 1011.08 140.833 1011.92 162.5 1012.75C173.333 1013.17 184.167 1013.58 195 1013.58C204.982 1013.58 214.964 1012.74 224.947 1011.89C247.464 1009.99 269.982 1008.08 292.5 1015.88C300.175 1017.19 303.897 1018.58 308.07 1020.13C312.143 1021.65 316.647 1023.32 325.677 1025.25C343.958 1029.16 363.458 1040.74 373.75 1050.88C384.042 1061.01 390 1064 390 1064V984V983.583V0Z" fill="#0D090A"/>
</svg>
